X:1
T:Non sa che
T:Non sa che
T:Gio.Girolamo Kapsperger
C:Gio.Girolamo Kapsperger
%%score [ 1 2 ] { ( 3 5 ) | 4 }
L:1/8
Q:1/4=120
M:4/4
K:F
V:1 treble nm="Soprano 1" snm="S 1"
V:2 treble nm="Soprano 2" snm="S 2"
V:3 treble nm="BC" snm="BC"
V:5 treble 
V:4 bass 
V:1
 z2 B2 c2 d2 | _ed c2 d2 AB | cd B2 B3 A | G8 :: z2 de f3 e | d2 cd _e2 ed | c3 B B3 c/B/ | %7
w: Non sa che|sia _ do- lor' chi _|non _ ha mal d'A-|mor.|Sot- to'il bel se-|ren' d'am- mi- ra- bil bel-|ta na- sco- so ve-|
w: ||||Co- me'in Ciel ba-|len' o- gni mio ben spa-|ri, por ch'il cor nel|
w: ||||Si tra rei mar-|tir mia vi- t'al fin pres-|so'e ne pian- t'e so-|
w: ||||Ne piu ri- de'il|cor' del- le bel- l'on- de'al|suon, che schia- vo d'A-|
w: |||||||
 A2 FG A A2 G | F3 c B2 Bc | A3 d c2 B2- | B2 BA G3 d | d2 cB A2 B2- | Bc F4 FE | %13
w: len qual tra fior ser- pe|sta ve- le- no cru-|del' ch'an- ci- de'o-|* gni pia- cer' che|spar- ge di fel o-|* gni dol- ce pen-|
w: sen' ar- co d'a- mor fe-|ri, splen- da l'al- ba'in|Ciel O ca- sch'il|_ sol nel mar' per|fo- c'o per giel' non|_ so che so- spi-|
w: spir' pon- no'im- pe- trar mer-||||me l'au- gel- lin in|_ van can- tan- do|
w: mor' nul- la'o- do'e nul- la|ce,- per- me fu'l mat-|tin' ro- se l'al-|* ba non ha, per|ce li- ber- ta quan-|* do tor- ne- rai|
w: |sn', ca- ra li- ber-|ta ri- ve- drot-|* t'io mai piu, dol-|||
"^Repetitur: \"Non sa che....\"" D8 :| %14
w: sier.|
w: rar.-|
w: va.|
w: tu.|
w: |
V:2
 z2 G2 A2 =B2 | cB A2 B2 FG | AB A2 G3 ^F | G8 :: z2 Bc d3 c | B2 A=B c2 cB | c3 G G3 A/G/ | %7
w: Non sa che|sia _ do- lor' chi _|non _ ha mal d'A-|mor.|Sot- to'il bel se-|ren' d'am- mi- ra- bil bel-|te'a na- sco- so ve-|
w: ||||Co- me'in Ciel ba|len' o- gni mio ben spa-|ri, por- ch'il cor nel|
w: ||||Si tra rei mar-|tir mia vi- t'al fin pres-|o'e ne pian- t'e so-|
w: ||||Ne piu ri- de'il|cor del- le bel- l'on- de'al|suon, che schia- vo d'A-|
 F2 DE F F2 E | F3 A G2 GE | ^F3 G EF G2- | G2 G^F G3 B | B2 AG F2 G2- | GA D4 D^C | %13
w: len qual tra fior ser- pe|sta ve- le- no cru-|del' ch'an- ci- * de'o-|* gni pia- cer' che|spar- ge di fel o-|* gni dol- ce pen-|
w: sen' ar- co d'a- mor fe-|ri, splen- da l'al- ba'in|Ciel O ca- * sch'il|_ sol nel mar' per|fo- c'o per giel non|_ so che so- spi-|
w: spir' pon- no'im- pe- trar mer-|ce, per me fu'l mat-|tin' ro- se _ l'al-|* ba non ha, per|me l'au- gel- lin in|_ van can- tan- do|
w: mor' nul- la'o- do'e nul- la|son', ca- ra li- ber-|ta ri- ve- * drot-|* t'io mai piu, dol-|ce li- ber- ta quan-|* do tor- ne- rai|
"^Repetitur:\"Non sa che....\"" D8 :| %14
w: sier.-|
w: rar|
w: va.|
w: tu.|
V:3
 z2 [GBd]2 [Gc]2 [G=Bd]2 | [Gc_e]2 [Ac]2 [Fd]2 [FA]2 | [FAd]2 [GB]2 [Gc]2 [^FAd]2 | [GBd]8 :: %4
 [FBd]6 [Ac]2 | [FBd]2 [Ac][=Bd] [G_e]2 cB | [_EGc]2 [GB]4 [G_e]2 | [FAd]4 [DB]2 [EG]2 | %8
 [FAc]4 [DB]4 | [^FAd]2 [DG]2 [EGc]2 [GB]2 | d4 [Bd]4 | [DGB]4 [FA]2 [EB]2 | [GB]2 F2 [EA]4 | %13
 [D^FA]8 :| %14
V:4
 z2 G,F, _E,2 D,2 |"^b" C,2 F,2 B,,2 F,E, | D,2 _E,D, C,2 D,2 | G,,8 :: B,,6 F,2 | %5
 B,,2 F,2 C,2 G,2 | C,2 _E,4 C,2 | D,4 B,,2 C,2 | F,,4 G,,4 | D,2 B,,2 C,2 _E,2 | [D,A,]4 G,,4 | %11
 G,,4 D,2 G,,2- | G,,2 B,,2 A,,4 |"^Repetitur: \"Non sa che...\"" D,8 :| %14
V:5
 x8 | x8 | x8 | x8 :: x8 | x8 | x8 | x8 | x8 | x8 | G2 ^F2 G4 | x8 | D6 ^C2 | x8 :| %14

